X: 5
T: Andy McGann's
R: reel
M: 4/4
L: 1/8
K: Gmaj
dc|:BGGF GDBD|cBAG FADc|BD D2 cEAG|Fd^cd ed^cd|
BGGF GDBD|=cBAG FADc|BD D2 cEAG|FAdc BG G2:||
|G2dG BGdG|G2 ed ^cdAF|G2dG BGdG|FD D2 FGAF|
G2dG BGdG|G2ed ^cdAF|Gd d2 BD D2|FAdc BG G2:||


Tune 3278	Setting 26250

